X:1
T:German Dance in F
T:German Dance in F
T:K. 15oo
T:W.A. Mozart
C:W.A. Mozart
%%score { 1 | 2 }
L:1/8
Q:1/4=130
M:3/4
K:F
V:1 treble nm="Piano" snm="Pno."
V:2 bass 
V:1
 AG | F2 C2 AG | F2 C2 [Ac]2 | [GB]2 [GB][FA][GB][Ac] | [FA]2 z2 (cA) | (^F2 G2) (cA) | %6
 (^F2 G2) =fd | e2 c2 =B2 |{=B} c4 :: cA | F2 f2 _e2 | (^c2 d2) FD | (A,2 B,2) FD | (A,2 B,2) dB | %14
 G2 BAGF | (F2 E2) (fd) | (=B2 c2) (ed) | (=B2 c2) A_B | cB A2 TG2 | F4 :| %20
V:2
 A,G, | F,2 C,2 A,G, | F,2 C,2 F,2 | D,2 D,2 E,2 | F,2 F,,2 F,2 | E,4 F,2 | E,4 =B,,2 | %7
 C,E, G,2 G,,2 | C,4 :: z2 | A,6 | B,2 z2 F,D, | (A,,2 B,,2) F,D, | (A,,2 B,,2) z2 | %14
 B,,2 B,,2 =B,,2 | C,2 z2 _B,2 | A,4 B,2 | A,4 F,G, | A,B, C2 C,2 | F,4 :| %20

